X: 021
T: Happy Wedding
B: 204 Favourite Country Dances
N: Published by Straight & Skillern, London ca.1775
F: http://imslp.org/wiki/204_Favourite_Country_Dances_(Various) p.11 #21
Z: 2014 John Chambers <jc:trillian.mit.edu>
M: 6/8
L: 1/8
K: D
%  - - - - - - - - - - - - - - - - - - - - - - - - -
a |\
fdd d>ed | efe e2a | fdd d>ed | cec A2a |\
fdd d>ed | fed b2d'| afd gea | fdd d2 :|
|: e |\
cAA A>BA | cBA e2g | fdd ece | B>cB B2a |\
fdd d>ed | fed b2d'| afd eag | fdd d2 :|
%  - - - - - - - - - - - - - - - - - - - - - - - - -
%%begintext align
%% Cast off hands 4 at bott: cast up and
%% hands 4 at top cast off 1 Cu. turn your
%% Part: right & left at top
%%endtext

%%sep 1 1 500
%%sep 1 1 500
